X: 117
T:Hopkins's Fancy. WM.117
M:6/8
L:1/8
S:Wm.Mittell's MS,New Romney,Kent,1799
R:Jig
O:England
A:Kent
N:Strains A,B are the high part of the tune,strains C,D are the low
N:part.Presumably they sound better together than they do apart
D:
H:
Z:vmp.Chris Partington
W:
K:A
"top part"cGe cGe|dGf dGf|edc ABc|d2dd3|cGe cGe|!dGf dGf|eca =fdf|g2gg3:
|
|:G2gG2B|AcB ABc|!G2gB2d|ced cde|f2fe3|a2ag3|fed cdB|c3c3:|]!
"2nd part"AEc AEc|BEd BEd|cBA AGA|B2BB3|AEc AEc|!BEd BEd|cAf =cAc|e2ee3:
|
|:E2eE2G|FAG FGA|!E2eG2B|AcB ABc|d2dc3|f2fe3|dcB ABG|A3A3:|]
